X:167
T:Inniskilling. VWMLa.167
%%VWML:Anon2-3049-p103-0
F:http://www.vwml.org/record/Anon2/3049/p103
S:Anon. MS, late 18thC, Vaughan Williams Mem. Library
N:Getting dangerously close to a polka. PJH.
O:England;Yorkshire
Z:vmp/efdss.Simon Wilson. Reviewed PJH 2008.
M:2/4
L:1/16
Q:1/4=75
K:G
B3c d2d2|c2B2 A2G2|\
B3c d2g2|e4 d4|\
c2c2 .c2(BA)|B2B2 .B2(cd)|\
(edcB) (dcBA)|G3A G4:|
|:c2c2 .c2(BA)|B2B2 .B2(AB)|\
c2c2 .c2(BA)|B2B2 .B2(cd)|\
e2e2 (efge)|d2d2 d2g2|\
(edcB) (dcBA)|G3AG4:|
